src/svg/crosshair.svg

<svg width="32" height="32" viewBox="0 0 32 32" fill="none" xmlns="http://www.w3.org/2000/svg">
<path fill-rule="evenodd" clip-rule="evenodd" d="M15.9998 4C16.0093 4 16.0188 4.00013 16.0282 4.0004C22.6431 4.0153 28.0008 9.38226 28.0008 16.0006C28.0008 22.6281 22.6281 28.0008 16.0006 28.0008C9.38227 28.0008 4.01531 22.6431 4.0004 16.0282C4.00013 16.0188 4 16.0093 4 15.9998C4 15.9903 4.00013 15.9807 4.0004 15.9712C4.01621 9.36701 9.36692 4.01627 15.9711 4.0004C15.9806 4.00013 15.9902 4 15.9998 4ZM14.9998 11V6.04982C10.2759 6.51923 6.51919 10.2759 6.04982 14.9998H11C11.5523 14.9998 12 15.4475 12 15.9998C12 16.5521 11.5523 16.9998 11 16.9998H6.04966C6.51837 21.7245 10.2754 25.4819 14.9998 25.9514L15 21C15 20.4477 15.4478 20 16 20C16.5523 20 17 20.4478 17 21L16.9998 25.9515C21.7249 25.4828 25.4827 21.7251 25.9515 17H21C20.4477 17 20 16.5523 20 16C20 15.4477 20.4477 15 21 15H25.9514C25.482 10.2755 21.7245 6.51835 16.9998 6.04966V11C16.9998 11.5523 16.552 12 15.9998 12C15.4475 12 14.9998 11.5523 14.9998 11Z" />
</svg>

<svg xmlns="http://www.w3.org/2000/svg" width="32" height="32" fill="none" viewBox="0 0 32 32">
  <g class="crosshair">
    <path  fill-rule="evenodd" d="M16 4h.028c6.615.015 11.973 5.382 11.973 12 0 6.628-5.373 12-12 12-6.619 0-11.986-5.357-12-11.972a.99.99 0 010-.057c.015-6.604 5.366-11.955 11.97-11.97L16 4zm-1 7V6.05A10.004 10.004 0 006.05 15H11a1 1 0 110 2H6.05A10.004 10.004 0 0015 25.95V21a1 1 0 012 0v4.951A10.003 10.003 0 0025.95 17H21a1 1 0 110-2h4.951A10.004 10.004 0 0017 6.05V11a1 1 0 01-2 0z" class="Union" clip-rule="evenodd"/>
  </g>
</svg>
